X:13989
T:Rattlin' Roarin' Willie
M:9/8
L:1/8
R:Slip jig
O:Scotland
K:AMix
|"A" ecA ABA cef|"G"{ef}g2d BGB d2f|"A"ecA ABA ceg|aga c2d e2f/g/|
aga ecA cef|"G"{ef}g2d BGB d2f|"A"ece f2e fae|cAc "G"B2G "A"A2f||
"A"ecA acA ecA|"G"BGB gdB d2f|"A"ecA acA ecA|{b}agf ecA e2f/g/|
{b}agf ecA cef|"G"gfg BGB d2B|"A"ABA c2A cea|cAc "G"BGB "A"A2z|]
